svg/design/vector_bezier_2_line.svg

<?xml version="1.0" encoding="UTF-8"?>
<svg width="24px" height="24px" viewBox="0 0 24 24" version="1.1" xmlns="http://www.w3.org/2000/svg" xmlns:xlink="http://www.w3.org/1999/xlink">
    <title>vector_bezier_2_line</title>
    <g id="页面-1" stroke="none" stroke-width="1" fill="none" fill-rule="evenodd">
        <g id="Design" transform="translate(-672.000000, 0.000000)">
            <g id="vector_bezier_2_line" transform="translate(672.000000, 0.000000)">
                 <path d="M24,0 L24,24 L0,24 L0,0 L24,0 Z M12.5934901,23.257841 L12.5819402,23.2595131 L12.5108777,23.2950439 L12.4918791,23.2987469 L12.4918791,23.2987469 L12.4767152,23.2950439 L12.4056548,23.2595131 C12.3958229,23.2563662 12.3870493,23.2590235 12.3821421,23.2649074 L12.3780323,23.275831 L12.360941,23.7031097 L12.3658947,23.7234994 L12.3769048,23.7357139 L12.4804777,23.8096931 L12.4953491,23.8136134 L12.4953491,23.8136134 L12.5071152,23.8096931 L12.6106902,23.7357139 L12.6232938,23.7196733 L12.6232938,23.7196733 L12.6266527,23.7031097 L12.609561,23.275831 C12.6075724,23.2657013 12.6010112,23.2592993 12.5934901,23.257841 L12.5934901,23.257841 Z M12.8583906,23.1452862 L12.8445485,23.1473072 L12.6598443,23.2396597 L12.6498822,23.2499052 L12.6498822,23.2499052 L12.6471943,23.2611114 L12.6650943,23.6906389 L12.6699349,23.7034178 L12.6699349,23.7034178 L12.678386,23.7104931 L12.8793402,23.8032389 C12.8914285,23.8068999 12.9022333,23.8029875 12.9078286,23.7952264 L12.9118235,23.7811639 L12.8776777,23.1665331 C12.8752882,23.1545897 12.8674102,23.1470016 12.8583906,23.1452862 L12.8583906,23.1452862 Z M12.1430473,23.1473072 C12.1332178,23.1423925 12.1221763,23.1452606 12.1156365,23.1525954 L12.1099173,23.1665331 L12.0757714,23.7811639 C12.0751323,23.7926639 12.0828099,23.8018602 12.0926481,23.8045676 L12.108256,23.8032389 L12.3092106,23.7104931 L12.3186497,23.7024347 L12.3186497,23.7024347 L12.3225043,23.6906389 L12.340401,23.2611114 L12.337245,23.2485176 L12.337245,23.2485176 L12.3277531,23.2396597 L12.1430473,23.1473072 Z" id="MingCute" fill-rule="nonzero"></path>
                <path d="M7,2 C8.10457,2 9,2.89543 9,4 L14.2676,4 C14.6134,3.4022 15.2597,3 16,3 C17.1046,3 18,3.89543 18,5 C18,6.10457 17.1046,7 16,7 C15.2597,7 14.6134,6.5978 14.2676,6 L10.899,6 C12.1955,7.27052 13,9.04131 13,11 L13,13 C13,14.7215 13.87,16.2397 15.1942,17.1392 C15.516,16.4655 16.2036,16 17,16 L19,16 C20.1046,16 21,16.8954 21,18 L21,20 C21,21.1046 20.1046,22 19,22 L17,22 C15.8954,22 15,21.1046 15,20 L9.73244,20 C9.38663,20.5978 8.74028,21 8,21 C6.89543,21 6,20.1046 6,19 C6,17.8954 6.89543,17 8,17 C8.74028,17 9.38663,17.4022 9.73244,18 L13.101,18 C11.8045,16.7295 11,14.9587 11,13 L11,11 C11,9.27854 10.13,7.76026 8.80577,6.86085 C8.48403,7.53455 7.79637,8 7,8 L5,8 C3.89543,8 3,7.10457 3,6 L3,4 C3,2.89543 3.89543,2 5,2 L7,2 Z M19,18 L17,18 L17,20 L19,20 L19,18 Z M7,4 L5,4 L5,6 L7,6 L7,4 Z" id="形状结合" fill="#09244B"></path>
            </g>
        </g>
    </g>
</svg>

<svg xmlns="http://www.w3.org/2000/svg" width="24" height="24"><g fill="none" fill-rule="evenodd"><path d="M24 0v24H0V0h24ZM12.593 23.258l-.011.002-.071.035-.02.004-.014-.004-.071-.035c-.01-.004-.019-.001-.024.005l-.004.01-.017.428.005.02.01.013.104.074.015.004.012-.004.104-.074.012-.016.004-.017-.017-.427c-.002-.01-.009-.017-.017-.018Zm.265-.113-.013.002-.185.093-.01.01-.003.011.018.43.005.012.008.007.201.093c.012.004.023 0 .029-.008l.004-.014-.034-.614c-.003-.012-.01-.02-.02-.022Zm-.715.002a.023.023 0 0 0-.027.006l-.006.014-.034.614c0 .012.007.02.017.024l.015-.002.201-.093.01-.008.004-.011.017-.43-.003-.012-.01-.01-.184-.092Z"/><path fill="#09244B" d="M7 2a2 2 0 0 1 2 2h5.268A2 2 0 0 1 18 5a2 2 0 0 1-3.732 1h-3.369A6.98 6.98 0 0 1 13 11v2c0 1.722.87 3.24 2.194 4.14A2 2 0 0 1 17 16h2a2 2 0 0 1 2 2v2a2 2 0 0 1-2 2h-2a2 2 0 0 1-2-2H9.732a2 2 0 1 1 0-2h3.369A6.979 6.979 0 0 1 11 13v-2c0-1.721-.87-3.24-2.194-4.14A2 2 0 0 1 7 8H5a2 2 0 0 1-2-2V4a2 2 0 0 1 2-2h2Zm12 16h-2v2h2v-2ZM7 4H5v2h2V4Z"/></g></svg>
